icons/WheelChair_1.svg

<svg width="24" height="24" viewBox="0 0 24 24" fill="none" xmlns="http://www.w3.org/2000/svg">
<path fill-rule="evenodd" clip-rule="evenodd" d="M12.75,5.25c0,0.9665 -0.7835,1.75 -1.75,1.75c-0.9665,0 -1.74998,-0.7835 -1.74998,-1.75c0,-0.9665 0.78348,-1.75 1.74998,-1.75c0.9665,0 1.75,0.7835 1.75,1.75zM7.99468,11.045c0.14167,0.3893 -0.05902,0.8196 -0.44825,0.9613c-0.63025,0.2294 -1.19726,0.6047 -1.65467,1.0952c-0.45741,0.4905 -0.79224,1.0823 -0.97711,1.727c-0.18486,0.6448 -0.21452,1.3241 -0.08655,1.9824c0.12797,0.6584 0.40995,1.2771 0.82287,1.8057c0.41292,0.5285 0.94506,0.9518 1.55292,1.2352c0.60785,0.2835 1.27416,0.419 1.94445,0.3956c0.67028,-0.0234 1.32556,-0.2051 1.91216,-0.5303c0.5866,-0.3251 1.0879,-0.7845 1.4629,-1.3405c0.2317,-0.3434 0.6978,-0.434 1.0412,-0.2024c0.3434,0.2316 0.434,0.6978 0.2024,1.0412c-0.5074,0.7522 -1.1857,1.3737 -1.9793,1.8137c-0.7937,0.4399 -1.6802,0.6857 -2.58701,0.7174c-0.90686,0.0317 -1.80834,-0.1517 -2.63073,-0.5352c-0.82239,-0.3835 -1.54235,-0.9562 -2.10101,-1.6712c-0.55865,-0.7151 -0.94015,-1.5522 -1.11329,-2.4429c-0.17314,-0.8908 -0.13302,-1.8099 0.1171,-2.6821c0.25012,-0.8723 0.70312,-1.673 1.32197,-2.3366c0.61885,-0.6636 1.38598,-1.1714 2.23867,-1.4817c0.38923,-0.1417 0.81962,0.059 0.96128,0.4482zM11.75,10.25h4.25c0.4142,0 0.75,0.3358 0.75,0.75c0,0.4142 -0.3358,0.75 -0.75,0.75h-4.25v2.5h3.0097c0.3797,0 0.7389,0.1726 0.9761,0.4691l3.8499,4.8124c0.2587,0.3234 0.2063,0.7954 -0.1172,1.0542c-0.3234,0.2587 -0.7954,0.2063 -1.0541,-0.1172l-3.7749,-4.7185h-3.1395c-0.6903,0 -1.25,-0.5596 -1.25,-1.25v-3.5v-2.25c0,-0.41421 0.3358,-0.75 0.75,-0.75c0.4142,0 0.75,0.33579 0.75,0.75z" fill="#002B51"/>
</svg>

<svg width="24" height="24" viewBox="0 0 24 24" fill="none" xmlns="http://www.w3.org/2000/svg">
<path fill-rule="evenodd" clip-rule="evenodd" d="M12.75 5.25C12.75 6.2165 11.9665 7 11 7C10.0335 7 9.25002 6.2165 9.25002 5.25C9.25002 4.2835 10.0335 3.5 11 3.5C11.9665 3.5 12.75 4.2835 12.75 5.25ZM7.99468 11.045C8.13635 11.4343 7.93566 11.8646 7.54643 12.0063C6.91618 12.2357 6.34917 12.611 5.89176 13.1015C5.43435 13.592 5.09952 14.1838 4.91465 14.8285C4.72979 15.4733 4.70013 16.1526 4.8281 16.8109C4.95607 17.4693 5.23805 18.088 5.65097 18.6166C6.06389 19.1451 6.59603 19.5684 7.20389 19.8518C7.81174 20.1353 8.47805 20.2708 9.14834 20.2474C9.81862 20.224 10.4739 20.0423 11.0605 19.7171C11.6471 19.392 12.1484 18.9326 12.5234 18.3766C12.7551 18.0332 13.2212 17.9426 13.5646 18.1742C13.908 18.4058 13.9986 18.872 13.767 19.2154C13.2596 19.9676 12.5813 20.5891 11.7877 21.0291C10.994 21.469 10.1075 21.7148 9.20069 21.7465C8.29383 21.7782 7.39235 21.5948 6.56996 21.2113C5.74757 20.8278 5.02761 20.2551 4.46895 19.5401C3.9103 18.825 3.5288 17.9879 3.35566 17.0972C3.18252 16.2064 3.22264 15.2873 3.47276 14.4151C3.72288 13.5428 4.17588 12.7421 4.79473 12.0785C5.41358 11.4149 6.18071 10.9071 7.0334 10.5968C7.42263 10.4551 7.85302 10.6558 7.99468 11.045ZM11.75 8.75C11.75 8.33579 11.4142 8 11 8C10.5858 8 10.25 8.33579 10.25 8.75V11V14.5C10.25 15.1904 10.8097 15.75 11.5 15.75H14.6395L18.4144 20.4685C18.6731 20.792 19.1451 20.8444 19.4685 20.5857C19.792 20.3269 19.8444 19.8549 19.5857 19.5315L15.7358 14.7191C15.4986 14.4226 15.1394 14.25 14.7597 14.25H11.75V11.75H16C16.4142 11.75 16.75 11.4142 16.75 11C16.75 10.5858 16.4142 10.25 16 10.25H11.75V8.75Z" fill="#002B51"/>
</svg>
